X: 26654
T: Midlothian Pipe Band, The
R: jig
M: 6/8
K: Dmajor
fe|d2A d>ef|ABA A2A|f2f f>ed|e>fe A>Bc|
d2A d>ef|B<GB B2g|f>ga A>Bc|d3 d2:|
a/g/|f2f f>ed|e2e e2g|a2a f2e|d>BB B>ag|
f2f fed|e2e e2g|a<fd A>Bc|d3 d2
a/g/|f2f f>ed|e2e e2g|a2a f2e|d>BB B2g|
f>ga e>fg|f>ed B2g|f>ga A>Bc|d3 d2||

